_/img/lisk-logo-white.svg

<svg width="118" height="46" viewBox="0 0 118 46" fill="none" xmlns="http://www.w3.org/2000/svg">
<path d="M12.1397 36.6144L16.9309 31.2336C17.0102 31.1478 16.9441 31.0091 16.8318 31.0091H11.5648C11.5251 31.0091 11.4921 30.9893 11.4657 30.9629L6.99171 25.9452C6.95206 25.899 6.94545 25.8396 6.97849 25.7868L14.4527 12.9652C14.4792 12.9256 14.4792 12.8728 14.4527 12.8266L11.3401 7.48534C11.2872 7.39291 11.1551 7.39291 11.1088 7.48534L0.019729 26.4866C-0.00670509 26.5394 -9.65765e-05 26.5988 0.032946 26.6451L8.9214 36.6144C8.94783 36.6409 8.98087 36.6607 9.02052 36.6607H12.034C12.0737 36.6607 12.1133 36.6409 12.1397 36.6144Z" fill="white"/>
<path d="M15.4242 0.0643719L12.3116 5.40559C12.2851 5.4452 12.2851 5.49802 12.3116 5.54423L15.5431 11.0901L24.1144 25.7867C24.1408 25.8395 24.1342 25.8989 24.1012 25.9452L19.5875 31.0091L14.7567 36.4295C14.6774 36.5154 14.7435 36.654 14.8559 36.654H22.0591C22.0988 36.654 22.1318 36.6342 22.1583 36.6078L31.0467 26.6384C31.0864 26.5922 31.093 26.5328 31.0599 26.4799L15.6555 0.0643719C15.6026 -0.0214573 15.4704 -0.0214573 15.4242 0.0643719Z" fill="white"/>
<path d="M48.9 12.4983H39.1V36.9983H48.9C55.655 36.9983 60.8 31.6783 60.8 24.7483C60.8 17.8183 55.655 12.4983 48.9 12.4983ZM48.9 31.6083H44.7V17.8883H48.9C52.75 17.8883 55.41 20.5483 55.41 24.7483C55.41 28.9483 52.75 31.6083 48.9 31.6083ZM72.1736 37.4883C77.3186 37.4883 81.4486 33.4633 81.4486 28.2483C81.4486 23.0333 77.3186 19.0083 72.1736 19.0083C67.0286 19.0083 62.8986 23.0333 62.8986 28.2483C62.8986 33.4633 67.0286 37.4883 72.1736 37.4883ZM72.1736 32.3783C69.8986 32.3783 68.1486 30.7333 68.1486 28.2483C68.1486 25.7633 69.8986 24.1183 72.1736 24.1183C74.4486 24.1183 76.1986 25.7633 76.1986 28.2483C76.1986 30.7333 74.4486 32.3783 72.1736 32.3783ZM92.8182 37.4883C96.2482 37.4883 99.2232 35.7033 100.728 32.9733L96.1432 30.3483C95.5832 31.5733 94.2882 32.3083 92.7482 32.3083C90.4732 32.3083 88.7932 30.6633 88.7932 28.2483C88.7932 25.8333 90.4732 24.1883 92.7482 24.1883C94.2882 24.1883 95.5482 24.9233 96.1432 26.1483L100.728 23.4883C99.2232 20.7933 96.2132 19.0083 92.8182 19.0083C87.4982 19.0083 83.5432 23.0333 83.5432 28.2483C83.5432 33.4633 87.4982 37.4883 92.8182 37.4883ZM107.811 24.6083C107.811 23.9783 108.371 23.6283 109.281 23.6283C110.436 23.6283 111.136 24.2583 111.626 25.1683L116.106 22.7533C114.636 20.2683 112.116 19.0083 109.281 19.0083C105.641 19.0083 102.421 20.9333 102.421 24.7483C102.421 30.8033 111.031 29.7883 111.031 31.7133C111.031 32.4133 110.401 32.7983 109.141 32.7983C107.601 32.7983 106.621 32.0633 106.166 30.7333L101.616 33.3233C102.981 36.1583 105.641 37.4883 109.141 37.4883C112.921 37.4883 116.421 35.7733 116.421 31.7483C116.421 25.2733 107.811 26.6033 107.811 24.6083Z" fill="white"/>
</svg>

<svg width="118" height="46" viewBox="0 0 118 46" fill="none" xmlns="http://www.w3.org/2000/svg"><path d="M12.14 36.614l4.79-5.38c.08-.086.014-.225-.098-.225h-5.267a.14.14 0 01-.1-.046l-4.473-5.018a.13.13 0 01-.014-.158l7.475-12.822a.13.13 0 000-.138L11.34 7.485c-.053-.092-.185-.092-.231 0L.019 26.487a.152.152 0 00.014.158l8.888 9.97a.14.14 0 00.1.046h3.013c.04 0 .08-.02.106-.047z" fill="#fff"/><path d="M15.424.064l-3.112 5.342a.13.13 0 000 .138l3.231 5.546 8.571 14.697a.152.152 0 01-.013.158l-4.514 5.064-4.83 5.42c-.08.086-.014.225.099.225h7.203a.14.14 0 00.1-.046l8.888-9.97a.129.129 0 00.013-.158L15.656.064c-.053-.085-.186-.085-.232 0zM48.9 12.498h-9.8v24.5h9.8c6.755 0 11.9-5.32 11.9-12.25s-5.145-12.25-11.9-12.25zm0 19.11h-4.2v-13.72h4.2c3.85 0 6.51 2.66 6.51 6.86s-2.66 6.86-6.51 6.86zm23.274 5.88c5.145 0 9.275-4.025 9.275-9.24s-4.13-9.24-9.275-9.24c-5.145 0-9.275 4.025-9.275 9.24s4.13 9.24 9.275 9.24zm0-5.11c-2.275 0-4.025-1.645-4.025-4.13s1.75-4.13 4.025-4.13c2.275 0 4.025 1.645 4.025 4.13s-1.75 4.13-4.025 4.13zm20.644 5.11c3.43 0 6.405-1.785 7.91-4.515l-4.585-2.625c-.56 1.225-1.855 1.96-3.395 1.96-2.275 0-3.955-1.645-3.955-4.06 0-2.415 1.68-4.06 3.955-4.06 1.54 0 2.8.735 3.395 1.96l4.585-2.66c-1.505-2.695-4.515-4.48-7.91-4.48-5.32 0-9.275 4.025-9.275 9.24s3.955 9.24 9.275 9.24zm14.993-12.88c0-.63.56-.98 1.47-.98 1.155 0 1.855.63 2.345 1.54l4.48-2.415c-1.47-2.485-3.99-3.745-6.825-3.745-3.64 0-6.86 1.925-6.86 5.74 0 6.055 8.61 5.04 8.61 6.965 0 .7-.63 1.085-1.89 1.085-1.54 0-2.52-.735-2.975-2.065l-4.55 2.59c1.365 2.835 4.025 4.165 7.525 4.165 3.78 0 7.28-1.715 7.28-5.74 0-6.475-8.61-5.145-8.61-7.14z" fill="#fff"/></svg>
